packages/web-icons/svgs/twitter_1.svg

<svg viewBox="0 0 50 48" xmlns="http://www.w3.org/2000/svg" class="ridi_icon"><path d="M47.3 0H2.7C1.6 0 .8.9.8 1.9v44.2c0 1.1.9 1.9 1.9 1.9h44.7c1.1 0 1.9-.9 1.9-1.9V1.9c0-1-.9-1.9-2-1.9zM43 13.5c-.8 1.3-2.1 2.6-3.5 3.7v.6c0 2.9-.6 5.9-1.9 8.8-1.7 3.8-4.3 6.8-7.7 9-3.4 2.2-7.2 3.2-11.4 3.2-3.4 0-6.6-.8-9.7-2.4-.8-.4-1.4-.7-1.7-1-.1 0-.2-.2-.2-.4s.1-.3.2-.4c.1-.1.3-.2.4-.2h1.7c2.6 0 5-.7 7.2-2-1.3-.3-2.4-.9-3.4-1.8s-1.7-2-2.1-3.3v-.2c0-.2.1-.3.2-.4.1-.1.3-.2.4-.2h.5c-1.1-.7-2.1-1.7-2.7-2.8-.6-1.1-1-2.4-1-3.8 0-.2.1-.4.2-.5.1-.1.3-.2.5-.2.1 0 .4.1.7.2.3.1.5.2.6.3-1.2-1.4-1.8-3.1-1.8-4.9 0-.7.1-1.4.3-2.1.2-.7.4-1.3.8-1.8.1-.2.3-.3.5-.3s.4.1.5.2c1 1.1 1.7 1.8 2.1 2.2 1.6 1.4 3.4 2.6 5.3 3.4 1.9.8 4 1.4 6.1 1.6-.1-.4-.2-.7-.2-1 0-2.2.8-4 2.3-5.5 1.5-1.5 3.4-2.3 5.5-2.3s3.9.7 5.4 2.2c1.2-.3 2.6-.8 4-1.6.1-.1.2-.1.3-.1.2 0 .3.1.4.2.1.1.2.3.2.4 0 .3-.2.8-.5 1.4-.3.6-.7 1.1-1 1.5.1 0 .3-.1.6-.2s.6-.2.8-.3c.3-.1.4-.1.5-.1.2 0 .3.1.4.2.1.1.2.3.2.4.1.1.1.2 0 .3z"/></svg>

<?xml version="1.0" encoding="UTF-8"?>
<svg width="50px" height="48px" viewBox="0 0 50 48" version="1.1" xmlns="http://www.w3.org/2000/svg">
  <!-- Generator: Sketch 41.2 (35397) - http://www.bohemiancoding.com/sketch -->
  <title>twitter_1</title>
  <desc>Created with Sketch.</desc>
  <defs></defs>
  <g id="Page-1" stroke="none" stroke-width="1" fill="none" fill-rule="evenodd">
    <g id="twitter_1" fill="#000000">
      <g id="레이어_1">
        <path d="M47.3,0 L2.7,0 C1.6,0 0.8,0.9 0.8,1.9 L0.8,46.1 C0.8,47.2 1.7,48 2.7,48 L47.4,48 C48.5,48 49.3,47.1 49.3,46.1 L49.3,1.9 C49.3,0.9 48.4,0 47.3,0 Z M43,13.5 C42.2,14.8 40.9,16.1 39.5,17.2 L39.5,17.8 C39.5,20.7 38.9,23.7 37.6,26.6 C35.9,30.4 33.3,33.4 29.9,35.6 C26.5,37.8 22.7,38.8 18.5,38.8 C15.1,38.8 11.9,38 8.8,36.4 C8,36 7.4,35.7 7.1,35.4 C7,35.4 6.9,35.2 6.9,35 C6.9,34.8 7,34.7 7.1,34.6 C7.2,34.5 7.4,34.4 7.5,34.4 L8.3,34.4 L9.2,34.4 C11.8,34.4 14.2,33.7 16.4,32.4 C15.1,32.1 14,31.5 13,30.6 C12,29.7 11.3,28.6 10.9,27.3 L10.9,27.1 C10.9,26.9 11,26.8 11.1,26.7 C11.2,26.6 11.4,26.5 11.5,26.5 L11.8,26.5 L12,26.5 C10.9,25.8 9.9,24.8 9.3,23.7 C8.7,22.6 8.3,21.3 8.3,19.9 C8.3,19.7 8.4,19.5 8.5,19.4 C8.6,19.3 8.8,19.2 9,19.2 C9.1,19.2 9.4,19.3 9.7,19.4 C10,19.5 10.2,19.6 10.3,19.7 C9.1,18.3 8.5,16.6 8.5,14.8 C8.5,14.1 8.6,13.4 8.8,12.7 C9,12 9.2,11.4 9.6,10.9 C9.7,10.7 9.9,10.6 10.1,10.6 C10.3,10.6 10.5,10.7 10.6,10.8 C11.6,11.9 12.3,12.6 12.7,13 C14.3,14.4 16.1,15.6 18,16.4 C19.9,17.2 22,17.8 24.1,18 C24,17.6 23.9,17.3 23.9,17 C23.9,14.8 24.7,13 26.2,11.5 C27.7,10 29.6,9.2 31.7,9.2 C33.8,9.2 35.6,9.9 37.1,11.4 C38.3,11.1 39.7,10.6 41.1,9.8 C41.2,9.7 41.3,9.7 41.4,9.7 C41.6,9.7 41.7,9.8 41.8,9.9 C41.9,10 42,10.2 42,10.3 C42,10.6 41.8,11.1 41.5,11.7 C41.2,12.3 40.8,12.8 40.5,13.2 C40.6,13.2 40.8,13.1 41.1,13 C41.4,12.9 41.7,12.8 41.9,12.7 C42.2,12.6 42.3,12.6 42.4,12.6 C42.6,12.6 42.7,12.7 42.8,12.8 C42.9,12.9 43,13.1 43,13.2 C43.1,13.3 43.1,13.4 43,13.5 L43,13.5 Z" id="Shape"></path>
      </g>
    </g>
  </g>
</svg>
